src/assets/images/icons/resume-icon.svg

<svg width="18" height="20" viewBox="0 0 18 20" fill="none" xmlns="http://www.w3.org/2000/svg">
<path fill-rule="evenodd" clip-rule="evenodd" d="M2.46043 18C2.05043 16.673 1.42043 13.567 3.13143 10.486C4.99843 7.126 4.58143 3.784 4.13143 2H15.0544C15.4644 3.327 16.0944 6.433 14.3834 9.514C12.5164 12.874 12.9334 16.216 13.3834 18H2.46043ZM1.38343 9.514C-0.763566 13.378 0.108434 17.215 0.583434 18.695C0.849434 19.531 1.62543 20 2.40743 20H13.9874C15.0824 20 15.7414 18.915 15.4554 17.984C15.0434 16.642 14.4284 13.552 16.1314 10.486C18.2784 6.622 17.4064 2.785 16.9314 1.305C16.6654 0.469 15.8894 0 15.1074 0H3.52743C2.43243 0 1.77243 1.085 2.05843 2.016C2.47043 3.358 3.08643 6.448 1.38343 9.514ZM5.75743 7C5.75743 6.73478 5.86279 6.48043 6.05033 6.29289C6.23786 6.10536 6.49222 6 6.75743 6H12.7574C13.0227 6 13.277 6.10536 13.4645 6.29289C13.6521 6.48043 13.7574 6.73478 13.7574 7C13.7574 7.26522 13.6521 7.51957 13.4645 7.70711C13.277 7.89464 13.0227 8 12.7574 8H6.75743C6.49222 8 6.23786 7.89464 6.05033 7.70711C5.86279 7.51957 5.75743 7.26522 5.75743 7ZM5.75743 10C5.49222 10 5.23786 10.1054 5.05033 10.2929C4.86279 10.4804 4.75743 10.7348 4.75743 11C4.75743 11.2652 4.86279 11.5196 5.05033 11.7071C5.23786 11.8946 5.49222 12 5.75743 12H8.75743C9.02265 12 9.277 11.8946 9.46454 11.7071C9.65208 11.5196 9.75743 11.2652 9.75743 11C9.75743 10.7348 9.65208 10.4804 9.46454 10.2929C9.277 10.1054 9.02265 10 8.75743 10H5.75743Z" fill="#CCD6F6"/>
</svg>

<svg xmlns="http://www.w3.org/2000/svg" width="18" height="20" fill="none"><path fill="#CCD6F6" fill-rule="evenodd" d="M2.46 18c-.41-1.327-1.04-4.433.671-7.514 1.867-3.36 1.45-6.702 1-8.486h10.923c.41 1.327 1.04 4.433-.67 7.514-1.868 3.36-1.45 6.702-1 8.486H2.46ZM1.383 9.514c-2.147 3.864-1.275 7.701-.8 9.181C.85 19.531 1.625 20 2.407 20h11.58c1.095 0 1.754-1.085 1.468-2.016-.412-1.342-1.027-4.432.676-7.498 2.147-3.864 1.275-7.701.8-9.181C16.665.469 15.89 0 15.107 0H3.527C2.432 0 1.772 1.085 2.058 2.016c.412 1.342 1.028 4.432-.675 7.498ZM5.757 7a1 1 0 0 1 1-1h6a1 1 0 1 1 0 2h-6a1 1 0 0 1-1-1Zm0 3a1 1 0 0 0 0 2h3a1 1 0 0 0 0-2h-3Z" clip-rule="evenodd"/></svg>
